X:1
T:The Wayside Cross
T:Horatio Richmond Palmer (1834-1907)
T:The Wayside Cross
T:Public Domain
T:Public Domain
T:Public Domain
C:Horatio Richmond Palmer (1834-1907)
Z:Public Domain
%%score ( 1 2 ) ( 3 4 )
L:1/8
M:3/4
K:Bb
V:1 treble 
V:2 treble 
V:3 bass 
V:4 bass 
V:1
 (FF) | B3 B B2 | (B B3) DE | F2 G3 F | [DB]4 BB | c2 c3 c | d2 c3 A | G2 A3 G | F4 FF | %9
w: 1.~“Which *|shall I take?”|a * voice in|a pil- grim|and spent is|my light; And|seek for a|that rests on|hill, But~be- tween|
w: 2.~“Which *|shall I take|the * bright gold-|at bridg- es|so safe- ly|for man? To|right? To the|ah, me! if|knew— The night|
w: 3.~“See~the *|from the palace|n * sil- ver-|they pen- cil|and fruit lad-|en vines— M-|fortune! m- y|for one tan-|gleam That sifts|
 (B B3) BB | d- d3 B2 | A2 (z C2) A x | [B,G]4 (GG) | [GB]3 [FA] [EG]2 | [^CG]2 [DF]3 [DF] | %15
w: li- * eth sul-|and * chill.”|||||
w: and * the pass-|so * few.”|||||
w: ies, * and wastes|the * stream.”|||||
 [A,CF]2 [B,DF]2 [CEF]2 | [B,DF-]4 ||"^Refrain" [FBd]2 | [Bd]2 [Bd]3 [Bd] | [Bd]4 [Bd][Bd] | %20
w: |||||
w: |||||
w: |||||
 [Be]2 [Be]2 [ce]2 | [Bd]2 z2 [Bd][Bd] | [Ac]2 [Ac]2 [Ac]2 | [Ac]4 ([Ac][Bd]) | [ce] [Bd]3 [Ac]2 | %25
w: |||||
w: |||||
w: |||||
 [Bd]2 z2 [Bd][ce] | [df]2 [df]2 [df]2 | [df]4 [ce][Bd] | [Bg]2 [eg]3 [eg] | [df]4 [Bd]2 | %30
w: |||||
w: |||||
w: |||||
 [df] [ce]3 [ce]2 | [ce] [Bd]3 [Bd]2 | [Ac]2 [Bd]2 [ce]2 | [Bd]4 [Bd]2 | B B3 [Bc]2 | %35
w: |||||
w: |||||
w: |||||
 [Bd] [Bd]3 [Bd]2 | [Bd] [Ac]3 [ce]2 | [Bd]4 |] %38
w: |||
w: |||
w: |||
V:2
 F2 | [DB]6 | [DB]4 DE | F2 G3 F | x6 | [CFA]6 | [CFA]4 x2 | =E6 | F4 FF | [DB]6 | [DB]6 | D4 B3 | %12
w: way|shouts|the night, “I’m|a- wear- ied,||I|palace,|the|us, a stream|len|||
w: way|for|en span Th-|the wa- ters||the|left?|I|is so dark,|ers|||
w: lights|i-|y lines, How|the hedg- es||y|all!|gled|thro’ the lil-|on|||
 x6 | x6 | x6 | x6 | x4 || x2 | x6 | x6 | x6 | x6 | x6 | x6 | x6 | x6 | x6 | x6 | x6 | x6 | x6 | %31
w: |||||||||||||||||||
w: |||||||||||||||||||
w: |||||||||||||||||||
 x6 | x6 | x6 | B B3 x2 | x6 | x6 | x4 |] %38
w: |||||||
w: |||||||
w: |||||||
V:3
 z2 | [B,,F,]6- | [B,,F,]4 D,E, | F,2 G,3 F, | [B,,F,]4 z2 | [F,,F,]6- | [F,,F,]4 z2 | C2- C3 B, | %8
w: |~|* ~ ~|~ ~ ~|~|~||~ * ~|
 [F,A,]4 z2 | [B,,F,]6 | [B,,F,]6 | ^F,2 G,3 F, x | [G,,G,]4 z2 | E,,4 G,,2 | E,2 F,4- | %15
w: ~|~|~|~ ~ ~|Near,|near thee,|* son,|
 .F,,2 .F,,2 .F,,2 | [B,,F,]4 || [B,,F,]2 | [B,,F,]2 [B,,F,]3 [B,,F,] | [B,,F,]4 [B,,F,][B,,F,] | %20
w: * the old|side|cross,|Like a gray|fri- ar cowled,|
 [E,G,]2 [E,G,]2 [E,G,]2 | [B,,F,]2 z2 [B,,F,][B,,F,] | F,2 F,2 F,2 | F,4 F,2 | F, F,3 F,2 | %25
w: in li- chens|and moss; And|its cross- beam|the bright|span, That bridg-|
 [B,,F,]2 z2 [B,,F,][B,,F,] | [B,,B,]2 [B,,B,]2 [B,,B,]2 | [B,,B,]4 [C,F,][D,F,] | %28
w: ters so safe-|ly for man;|That bridg- es|
 [E,B,]2 [E,B,]3 [E,B,] | [E,B,]4 [B,,F,]2 | F, F,3 F,2 | [B,,F,] [D,F,]3 [D,F,]2 | %32
w: the wa- ters|so safe-|ly for man.||
 [F,,F,]2 [F,,F,]2 [F,,F,]2 | [B,,F,]4 [B,,F,]2 | [E,G,] [E,G,]3 [E,G,]2 | %35
w: |||
 [B,,F,] [B,,F,]3 [B,,F,]2 | F, F,3 [F,,F,A,]2 | [B,,F,]4 |] %38
w: |||
V:4
 x2 | x6 | x4 D,E, | F,2 G,3 F, | x6 | x6 | x6 | C,6 | x6 | x6 | x6 | D,6 x | x6 | E,6- | B,,6 | %15
w: ||~ ~|~ ~ ~||||~||||~||my|is|
 F,6 | x4 || x2 | x6 | x6 | x6 | x6 | F,2 F,2 F,2 | F,4 F,2 | F, F,3 F,2 | x6 | x6 | x6 | x6 | x6 | %30
w: way-|||||||will point to|gold- en|es the wa-||||||
 F, F,3 F,2 | x6 | x6 | x6 | x6 | x6 | F, F,3 x2 | x4 |] %38
w: ||||||||

